images_sukapura_svg/cmd/sc_patternfield.svg

<svg viewBox="0 0 16 16" xmlns="http://www.w3.org/2000/svg">/&amp;gt;<g fill="#4b4b4f" stroke-width=".346848"><path d="m6.3069455 10.554449h-3.4820301l-1.1922904 2.303289h-1.632625l5.3314351-9.8634942h1.5310094l1.3481011 9.8634942h-1.6393994zm-2.7707204-1.3751985h2.6149097l-.4606577-4.0781752-.0406462-.0067744z"/><path d="m13.23036 12.857738q-.0271-.230329-.03387-.453884 0-.223554.02032-.447109-.420012.453884-.968736.751956-.54195.291298-1.124547.291298-.968736 0-1.4632655-.602919-.4877541-.609694-.2845228-1.605528.2235544-1.1313207 1.0974493-1.6868196.873895-.5622734 2.316837-.5622734h1.070352l.128713-.6435658q.121939-.609694-.115165-.914541-.230328-.3116214-.799376-.3116214-.480981 0-.853572.2777495-.372591.2709751-.453883.6909865h-1.551333l-.01355-.040646q.149036-.9213154 1.050028-1.5648812.900992-.6435659 2.174575-.6435659 1.124547 0 1.774887.663889.650341.663889.413237 1.8561794l-.650338 3.2584759q-.101616.487755-.128713.887443-.02032.399688.03387.799377zm-1.483589-1.178742q.447109 0 .914541-.243878.467432-.243877.738407-.589371l.257426-1.2735826h-1.097449q-.582596 0-1.022931.359042-.440334.3590416-.535176.8332486-.09484.447109.08807.684212.189683.230329.657115.230329z"/></g></svg>

<?xml version="1.0" encoding="UTF-8" standalone="no"?>
<svg
   xmlns:dc="http://purl.org/dc/elements/1.1/"
   xmlns:cc="http://creativecommons.org/ns#"
   xmlns:rdf="http://www.w3.org/1999/02/22-rdf-syntax-ns#"
   xmlns:svg="http://www.w3.org/2000/svg"
   xmlns="http://www.w3.org/2000/svg"
   xmlns:sodipodi="http://sodipodi.sourceforge.net/DTD/sodipodi-0.dtd"
   xmlns:inkscape="http://www.inkscape.org/namespaces/inkscape"
   viewBox="0 0 16 16"
   version="1.1"
   id="svg6"
   sodipodi:docname="sc_patternfield.svg"
   inkscape:version="0.92.3 (2405546, 2018-03-11)"><metadata
   id="metadata12">
  <rdf:RDF>
    <cc:Work
       rdf:about="">
      <dc:format>image/svg+xml</dc:format>
      <dc:type
         rdf:resource="http://purl.org/dc/dcmitype/StillImage" />
      <dc:title></dc:title>
    </cc:Work>
  </rdf:RDF>
</metadata>
<defs
   id="defs10" />
<sodipodi:namedview
   pagecolor="#ffffff"
   bordercolor="#666666"
   borderopacity="1"
   objecttolerance="10"
   gridtolerance="10"
   guidetolerance="10"
   inkscape:pageopacity="0"
   inkscape:pageshadow="2"
   inkscape:window-width="1366"
   inkscape:window-height="716"
   id="namedview8"
   showgrid="true"
   inkscape:zoom="20.85965"
   inkscape:cx="2.3810997"
   inkscape:cy="10.171746"
   inkscape:window-x="-8"
   inkscape:window-y="-8"
   inkscape:window-maximized="1"
   inkscape:current-layer="svg6">
  <inkscape:grid
     type="xygrid"
     id="grid822" />
</sodipodi:namedview>
/&gt;<g
   aria-label="Aa"
   style="font-style:normal;font-weight:normal;font-size:13.87392521px;line-height:1.25;font-family:sans-serif;letter-spacing:0px;word-spacing:0px;fill:#4b4b4f;fill-opacity:1;stroke:none;stroke-width:0.34684813"
   id="text826">
  <path
     d="M 6.3069455,10.554449 H 2.8249154 L 1.632625,12.857738 H 0 L 5.3314351,2.9942438 H 6.8624445 L 8.2105456,12.857738 H 6.5711462 Z M 3.5362251,9.1792505 H 6.1511348 L 5.6904771,5.1010753 5.6498309,5.0943009 Z"
     style="font-style:italic;font-variant:normal;font-weight:500;font-stretch:normal;font-family:Roboto;-inkscape-font-specification:'Roboto Medium Italic';stroke-width:0.34684813;fill:#4b4b4f;fill-opacity:1"
     id="path828" />
  <path
     d="m 13.23036,12.857738 q -0.0271,-0.230329 -0.03387,-0.453884 0,-0.223554 0.02032,-0.447109 -0.420012,0.453884 -0.968736,0.751956 -0.54195,0.291298 -1.124547,0.291298 -0.968736,0 -1.4632655,-0.602919 Q 9.1725074,11.787386 9.3757387,10.791552 9.5992931,9.6602313 10.473188,9.1047324 11.347083,8.542459 12.790025,8.542459 h 1.070352 L 13.98909,7.8988932 q 0.121939,-0.609694 -0.115165,-0.914541 -0.230328,-0.3116214 -0.799376,-0.3116214 -0.480981,0 -0.853572,0.2777495 -0.372591,0.2709751 -0.453883,0.6909865 h -1.551333 l -0.01355,-0.040646 q 0.149036,-0.9213154 1.050028,-1.5648812 0.900992,-0.6435659 2.174575,-0.6435659 1.124547,0 1.774887,0.663889 0.650341,0.663889 0.413237,1.8561794 L 14.9646,11.170918 q -0.101616,0.487755 -0.128713,0.887443 -0.02032,0.399688 0.03387,0.799377 z m -1.483589,-1.178742 q 0.447109,0 0.914541,-0.243878 0.467432,-0.243877 0.738407,-0.589371 l 0.257426,-1.2735826 h -1.097449 q -0.582596,0 -1.022931,0.359042 -0.440334,0.3590416 -0.535176,0.8332486 -0.09484,0.447109 0.08807,0.684212 0.189683,0.230329 0.657115,0.230329 z"
     style="font-style:italic;font-variant:normal;font-weight:500;font-stretch:normal;font-family:Roboto;-inkscape-font-specification:'Roboto Medium Italic';stroke-width:0.34684813;fill:#4b4b4f;fill-opacity:1"
     id="path830" />
</g>
</svg>
